!!!!SEGMENT: pl-wnifc--6738-n--002_orda-napoleon--polonaise.krn
!!!cenid: 18xx:3981
!!!COM: Orda, Napoleon
!!!COM-rismID: pe41011207
!!!CDT: 1807/02/11-1833/04/26
!!!CNT:
!!!OTL: Polonaise
!!!PDT:
!!!AGN:
!!!SMS-siglum: PL-Wnifc
!!!SMS-shelfmark: 6738/n
!!!SMS-shelfwork: 002 W
!!!SMS-variant:
!!!SMS-altvar:
!!!NIFC-rismSourceID: 1001157997
!!!NIFC-rismChildID: 1001158152
!!!NIFC-islandoraID: nifc:213460
!!!URL-pdf-islandora: https://repozytorium.nifc.pl/islandora/object/nifc%3A213460/datastream/PDF/view
!!!URL-scan: https://polish.musicsources.pl/pl/lokalizacje/galeria/klocki-introligatorskie/688 @EN{Scan on Polish Music Sources Website} @PL{Skany w portalu Dziedzictwo Muzyki Polskiej w otwartym dostępie}
!!!IIIF:
!!!ONB-nifc: UWAGA: skany 28-29
!!!AIN: 2 piano
!!!key: e
**kern	**kern	**dynam
*part2	*part1	*part1
*staff2	*staff1	*
*I"[Piano]	*I"[Piano]	*
*I'pf	*I'pf	*
*ICklav	*ICklav	*
*Ipiano	*Ipiano	*
*clefF4	*clefG2	*
*k[f#]	*k[f#]	*
*e:	*e:	*
*M3/4	*M3/4	*
=1	=1	=1
!	!LO:TX:t=P:problem: [quarter] cauda \	!
!	!LO:TX:a:t=Metr&colon; [quarter] = 84.	!
!LO:TX:a:B:t=Dolce.	!LO:TX:a:B:t=Con grazia.	!
8EE/ 8E	(4.b\	.
8G\L 8B 8e	.	.
8G\ 8B 8e	.	.
8G\ 8B 8e	8ee\	.
8G\ 8B 8e	8ff#\L	.
8G\J 8B 8e	8gg\J)	.
=2	=2	=2
8EE/ 8E	(8.ff#\L	.
8G\L 8B 8e	.	.
.	16ee\Jk	.
8G\ 8B 8e	4.b\)	.
8G\ 8B 8e	.	.
8G\ 8B 8e	.	.
8G\J 8B 8e	8bb\	.
=3	=3	=3
8E\L	[4eee\	.
8G\ 8B 8e	.	.
8G\ 8B 8e	(16eee\LL]	.
.	16aa#X\	.
8G\J 8B 8e	16ccc\	.
.	16bb\JJ	.
8E\L	16gg\LL	.
.	16ee\	.
8G\J 8c 8e	16cc\	.
.	16a#X\JJ)	.
=4	=4	=4
8E\	(8b\L	.
4G\ 4B 4e	16dd\L	.
.	16cc\JJ	.
.	4.b\)	.
8G\L 8B 8e	.	.
8G\ 8B 8e	.	.
8G\J 8B 8e	8b\	.
!!LO:LB:g=original	!	!
=5	=5	=5
8D#X\L	4.b\	.
8F#\ 8A 8B	.	.
8F#\ 8A 8B	.	.
8F#\J 8A 8B	8f#/	.
8E\L	8a/L	.
8G\J 8B	8g/J	.
=6	=6	=6
8C#X\L	4.f#/	.
8E\ 8F# 8A#X	.	.
8E\ 8F# 8A#	.	.
8E\J 8F# 8A#	8e/	.
8Cn\L	8f#/L	.
8E\J 8F# 8A#	8e/J	.
=7	=7	=7
*	*ped	*
8BB\L	(16d#X/LL	.
.	16b/ 16dd#y	.
8D#X\J 8F# 8B	16f#/	.
.	16dd#/JJ 16ff#	.
8D#\L 8F# 8B	16b\LL	.
.	16ff#\ 16bb	.
8D#\J 8F# 8B	16dd#\	.
.	16bb\JJ 16ddd#y	.
*	*Xped	*
8FF#\L	16ee\LL	.
.	16ff#\ 16ddd#	.
8F#\J 8A#X	16ee\	.
.	16ff#\JJ 16ddd#	.
*clefG2	*	*
=8	=8	=8
*^	*	*
(<8d#X/L	2B\	16dd#X\LL 16bb	>
.	.	16b\	.
8e/	.	16ee\ 16aa#X	.
.	.	16cc#X\JJ	.
8f#/	.	16dd#\LL 16aan	.
.	.	16ccn\	.
8g/	.	16ee\ 16gg	.
.	.	16b\JJ	.
8a/	4ryy	16ee\LL 16ff#	.
.	.	16cc\	.
8f#/J)	.	16dd#\ 16bb	.
.	.	16b\JJ)	]]
*v	*v	*	*
*clefF4	*	*
!!LO:LB:g=original	!	!
=9	=9	=9
8EE\L 8E	(4.b\	.
8G\J 8B 8e	.	.
8G\L 8B 8e	.	.
8G\ 8B 8e	8ee\	.
8G\ 8B 8e	8ff##X\L	.
8G\J 8B 8e	8aa#X\J)	.
=10	=10	=10
8E\L	(4.bb\	<
8G\J 8B 8e	.	.
8G\L 8B 8e	.	.
8G\ 8B 8e	8eee\	.
*	*8va	*
8G\ 8B 8e	8ggg\L	.
8G\J 8B 8e	8bbb\J)	[[
=11	=11	=11
8E\L	(16eeee\LL	ff
.	16dddd\	.
8G#X\J 8d	16bbb\	.
.	16ggg#X\JJ	.
*	*X8va	*
!	!LO:TX:B:a:t=Loco.	!
8G#\L 8d	32eee\LLL	.
.	32ddd\	.
.	32bb\	.
.	32gg#\JJJ	.
8G#\ 8d	32ee\LLL	.
.	32dd\	.
.	32b\	.
.	32g#X\JJJ)	.
8G#\ 8d	8.ffn^\L	.
8G#\J 8d	.	.
.	16ee\Jk	.
=12	=12	=12
8A\	4dd\	.
4c\ 4e	.	.
.	4.cc\	.
8c\L 8e	.	.
8c\ 8e	.	.
8c\J 8e	8cc\	.
=13	=13	=13
8D\	8cc\L	.
.	16qqb-X/LL	.
.	16qqcc/JJ	.
4Fn\ 4B-X 4d	16b-y\L	.
.	16a\JJ	.
.	16b-\LL	.
.	16cc\	.
8F\L 8B- 8d	16dd\	.
.	16ee\JJ	.
8F\ 8B- 8d	8gg^\L	.
8F\J 8B- 8d	8ffn\J	.
!!LO:LB:g=original	!	!
=14	=14	=14
8BBB\L 8BB	8.ee\L	.
8F#\J 8B 8d#X	.	.
.	16dd#X\Jk	.
8F#\L 8B 8d#	(16cc##X\LL	.
.	16dd#\	.
8F#\ 8B 8d#	16ee\	.
.	16ff#\JJ	.
8F#\ 8B 8d#	16gg\LL	.
.	16aa\	.
8F#\J 8B 8d#	16bb\	.
!	!LO:TX:t=P:problem: podwójny kasownik	!
.	16cccn\JJ	.
=15	=15	=15
8E\	16bb\LL)	.
.	(16ggg\	.
4G\ 4B 4e	16ddd#X\	.
.	16eee\JJ	.
.	16fff#\LL	>
.	16eee\	.
8G\ 8B 8e	16bb\	.
.	16gg\JJ	.
8AA\L	16ff#\LL	.
.	16ee\	.
8E\J 8F#	16cc\	.
.	16a\JJ)	]]
=16	=16	=16
8BB/	16g/LL	.
.	16f#/	.
4D#X\ 4A	16b/	.
.	16d#X/JJ	.
.	4A/ 4f#	.
8BB/	.	.
8EE/	8G/ 8e	.
8r	8r	.
=17:|!	=17:|!	=17:|!
8BBB\L 8BB	[4b\	.
8B\J 8d#X	.	.
8F#\L	16b\LL]	.
.	16aa\	.
8B\J 8d#	16ee#X\	.
.	16ff#\JJ	.
8E\L	16aa\LL	.
.	16gg\	.
8G\J 8B 8e	16ff#\	.
.	16een\JJ	.
!!LO:LB:g=original	!	!
=18	=18	=18
8BB/	16dd#X\LL	.
.	16ee\	.
4F#\ 4B 4d#X	16ee#X\	.
.	16ff#\JJ	.
.	4.b\	.
8F#\L 8B 8d#	.	.
8F#\ 8B 8d#	.	.
8F#\J 8B 8d#	8bb\	.
=19	=19	=19
*	*ped	*
8BB\L	4b\ [4bb	.
8B\J 8d#X	.	.
8F#\L	16b\LL 16bb]	.
.	(16aa\ 16aaa	.
8B\J 8d#	16ee#X\ 16eee#X	.
.	16ff#\JJ 16fff#	.
*	*Xped	*
8E\L	16aa\LL 16aaa	.
.	16gg\ 16ggg	.
8G\J 8B 8e	16ff#\ 16fff#	.
.	16een\JJ) 16eeen	.
=20	=20	=20
*	*ped	*
8BB/	(16dd#X\LL 16ddd#X	.
.	16ff#\ 16fff#	.
4F#\ 4B 4d#X	16aa#X\ 16aaa#X	.
.	16bb\JJ) 16bbb	.
.	4b\ [4bb	.
8F#\L 8B 8d#	.	.
*	*Xped	*
8F#\J 8B 8d#	16b\LL 16bb]	.
.	16b\	.
8r	16cc\	.
.	16cc#X\JJ	.
=21	=21	=21
8DD/ 8D	[4dd\	.
8D\L	.	.
8F#\ 8c	16dd\LL]	.
.	(16ff#\	.
8D\J	16aa\	.
.	16ccc\JJ	.
*	*8va	*
8F#\L 8c	16ddd\LL	.
.	16fff#\	.
8F#\J	16aaa\	.
.	16cccc\JJ)	.
*	*X8va	*
!!LO:PB:g=original	!	!
=22	=22	=22
*	*8va	*
8GG/L	16ddd\LL 16bbb	.
.	8qcccc/	.
.	16bbb\	.
8D/J	16aaa#X\	.
.	16bbb\JJ	.
8G\L 8B	16eee\LL 16cccc	.
.	16ddd\ 16bbb	.
8D\J	16ccc\ 16aaa#	.
.	16bb\JJ 16ggg	.
8G\L 8B	16ddd\LL 16fff#	.
.	16fff#\ 16aaa#	.
8D\J	16eee\ 16ggg	.
.	16ccc\JJ 16eee	.
=23	=23	=23
8DD/ 8D	16ccc\LL 16eee	.
.	16ddd\	.
8D\L	16ccc\ 16aaa	.
.	16ddd\JJ	.
8F#\ 8c	16ccc\LL 16ggg#X	.
.	16ddd\	.
8D\	16ccc\ 16aaa	.
.	16ddd\JJ	.
8F#\ 8c	16ccc\LL 16bbb	.
.	16ddd\	.
8D\J	16ccc\ 16aaa	.
.	16ddd\JJ	.
=24	=24	=24
8GG\L	16bb\LL 16ggg	.
.	16ggg\ 16bbb	.
8D\	16fff#\ 16aaa	.
.	16eee\JJ 16ggg	.
8G\ 8B	16ddd\LL 16fff#	.
.	16fff#\ 16aaa	.
8D\	16eee\ 16ggg	.
.	16ccc\JJ 16eee	.
8G\ 8B	4bb\ 4ddd	.
8D\J	.	.
=25	=25	=25
8BBB\L 8D	4aa\ [4ddd#X	.
8F#\J 8B 8d#X	.	.
8F#\L 8B 8d#	16aa\LL 16ddd#]	.
.	16bb\	.
8F#\ 8B 8d#	16aa#X\	.
.	16bb\JJ	.
8F#\ 8B 8d#	16ccc#X\LL	.
.	16ddd#\	.
8F#\J 8B 8d#	16eee\	.
.	16fff#\JJ	.
!!LO:LB:g=original	!	!
=26	=26	=26
8E\L	[4ggg\	.
8G\J 8B 8e	.	.
8C\L	16ggg\LL]	.
.	16eee\	.
8G\ 8B-X 8e	16ccc\	.
.	16bb-X\JJ	.
*	*X8va	*
!	!LO:TX:B:a:t=Loco.	!
8G\ 8B- 8e	16gg\LL	.
.	16ee\	.
8G\J 8B- 8e	16cc\	.
.	16b-\JJ	.
=27	=27	=27
*	*^	*
8BB\L	8r	8b\L	.
8G\ 8B	2b/	8e\	.
8F#\	.	8d#X\	.
8E\	.	8c#X\	.
8D#X\	.	8B\	.
8E\J	8a#X/	8c#\J	.
*	*v	*v	*
=28	=28	=28
4D#X\	8B/L 8b	.
.	8b/	.
!	!LO:TX:b:B:t=Ritar&colon;	!
4r	8b/	.
.	8b/	.
4r	8b/	.
.	8b/J	.
=29	=29	=29
8EE/ 8E	4.b\	.
8G\L 8B 8e	.	.
8G\ 8B 8e	.	.
8G\ 8B 8e	8ee\	.
8G\ 8B 8e	8ff#\L	.
8G\J 8B 8e	8gg\J	.
=30	=30	=30
8EE/ 8E	8.ff#\L	.
8G\L 8B 8e	.	.
.	16ee\Jk	.
8G\ 8B 8e	4.b\	.
8G\ 8B 8e	.	.
8G\ 8B 8e	.	.
8G\J 8B 8e	8bb\	.
=31	=31	=31
8E\L	[4eee\	.
8G\ 8B 8e	.	.
8G\ 8B 8e	16eee\LL]	.
.	16aa#X\	.
8G\J 8B 8e	16ccc\	.
.	16bb\JJ	.
8E\L	16gg\LL	.
.	16ee\	.
8G\J 8c 8e	16cc\	.
.	16a#X\JJ	.
!!LO:LB:g=original	!	!
=32	=32	=32
8E\	8b\L	.
4G\ 4B 4e	16dd\L	.
.	16cc\JJ	.
.	4.b\	.
8G\L 8B 8e	.	.
8G\ 8B 8e	.	.
8G\J 8B 8e	8b\	.
=33	=33	=33
8D#X\L	4.b\	.
8F#\ 8A 8B	.	.
8F#\ 8A 8B	.	.
8F#\J 8A 8B	8f#/	.
8E\L	8a/L	.
8G\J 8B	8g/J	.
=34	=34	=34
8C#X\L	4.f#/	.
8E\ 8F# 8A#X	.	.
8E\ 8F# 8A#	.	.
8E\J 8F# 8A#	8e/	.
8Cn\L	8f#/L	.
8E\J 8F# 8A#	8e/J	.
=35	=35	=35
*	*ped	*
8BB\L	16d#X/LL	.
.	16b/ 16dd#y	.
8D#X\J 8F# 8B	16f#/	.
.	16dd#/JJ 16ff#	.
8D#\L 8F# 8B	16b\LL	.
.	16ff#\ 16bb	.
8D#\J 8F# 8B	16dd#\	.
.	16bb\JJ 16ddd#y	.
*	*Xped	*
8FF#\L	16ee\LL	.
.	16ff#\ 16ddd#	.
8F#\J 8A#X	16ee\	.
.	16ff#\JJ 16ccc	.
*clefG2	*	*
!!LO:LB:g=original	!	!
=36	=36	=36
*^	*	*
8d#X/L	2B\	16dd#X\LL 16bb	>
.	.	16b\	.
8e/	.	16ee\ 16aa#X	.
.	.	16cc#X\JJ	.
8f#/	.	16dd#\LL 16aan	.
.	.	16ccn\	.
8g/	.	16ee\ 16gg	.
.	.	16b\JJ	.
8a/	4ryy	16ee\LL 16ff#	.
.	.	16cc\	.
8f#/J	.	16dd#\ 16bb	.
.	.	16b\JJ	]]
*v	*v	*	*
*clefF4	*	*
=37	=37	=37
8E\L	4.b\	.
8G\J 8B 8e	.	.
8G\L 8B 8e	.	.
8G\ 8B 8e	8ee\	.
8G\ 8B 8e	8ff##X\L	.
8G\J 8B 8e	8aa#X\J	.
=38	=38	=38
8E\L	4.bb\	<
8G\J 8B 8e	.	.
8G\L 8B 8e	.	.
8G\ 8B 8e	8eee\	.
*	*8va	*
8G\ 8B 8e	8ggg\L	.
8G\J 8B 8e	8bbb\J	[[
=39	=39	=39
8E\L	16eeee\LL	ff
.	16dddd\	.
8G#X\J 8d	16bbb\	.
.	16ggg#X\JJ	.
*	*X8va	*
!	!LO:TX:B:a:t=Loco.	!
8G#\L 8d	32eee\LLL	.
.	32ddd\	.
.	32bb\	.
.	32gg#\JJJ	.
8G#\ 8d	32ee\LLL	.
.	32dd\	.
.	32b\	.
.	32g#y\JJJ	.
8G#\ 8d	8.ffn^\L	.
8G#\J 8d	.	.
.	16ee\Jk	.
=40	=40	=40
8A\	4dd\	.
4c\ 4e	.	.
.	4.cc\	.
8c\L 8e	.	.
8c\ 8e	.	.
8c\J 8e	8cc\	.
!!LO:LB:g=original	!	!
=41	=41	=41
8D\	8cc\L	.
.	16qqb-X/LL	.
.	16qqcc/JJ	.
4Fn\ 4B-X 4d	16b-y\L	.
.	16a\JJ	.
.	16b-\LL	.
.	16cc\	.
8F\L 8B- 8d	16dd\	.
.	16ee\JJ	.
8F\ 8B- 8d	8gg^\L	.
8F\J 8B- 8d	8ffn\J	.
=42	=42	=42
8BBB\L 8BB	8.ee\L	.
8F#\J 8B 8d#X	.	.
.	16dd#X\Jk	.
8F#\L 8B 8d#	16cc##X\LL	.
.	16dd#\	.
8F#\ 8B 8d#	16ee\	.
.	16ff#\JJ	.
8F#\ 8B 8d#	16gg\LL	.
.	16aa\	.
8F#\J 8B 8d#	16bb\	.
!	!LO:TX:y=P:problem: podwójny kasownik	!
.	16cccn\JJ	.
=43	=43	=43
8E\	16bb\LL	.
.	16ggg\	.
4G\ 4B 4e	16ddd#X\	.
.	16eee\JJ	.
.	16fff#\LL	>
.	16eee\	.
8G\ 8B 8e	16bb\	.
.	16gg\JJ	.
8AA/L	16ff#\LL	.
.	16ee\	.
8E/J 8F#	16cc\	.
.	16a\JJ	]]
=44	=44	=44
8BB/	16g/LL	.
.	16f#/	.
4D#X\ 4A	16b/	.
.	16d#X/JJ	.
.	4A/ 4f#	.
8BB/	.	.
8EE/	8G/ 8e	.
8r	8r	.
!!LO:PB:g=original	!	!
=45:|!	=45:|!	=45:|!
*k[f#c#g#d#]	*k[f#c#g#d#]	*
*M3/4	*M3/4	*
*	*^	*
!	!LO:TX:B:a:t=TRIO.	!	!
4.E\ 4.B	4.gg#/	4.g#\	.
8E\ 8B	8ff#/	8g#\	.
8E\L 8c#	8ee/L	8a\L	.
8A\J	8cc#/J	8cc#\J	.
=46	=46	=46	=46
*^	*	*	*
8G#/	8E\	8b/	8r	.
8G#/L	2BB\	2b/	8e\L	.
8F#/	.	.	8d#\	.
8G#/	.	.	8e\	.
8A/	.	.	8f#\	.
8G#/J	8rFF	8rcc	8e\J	.
*v	*v	*	*	*
=47	=47	=47	=47
8BB\ 8B	8b/	8d#\L	<
4BB\ 4B	4b/	8e\ 8cc#	.
.	.	8e#X\ 8cc##X	.
4BB\ 4B	4b/	8f#\ 8dd#	.
.	.	8g#\ 8ee	.
8BB\ 8B	8b/	8a\J 8ff#	.
*	*v	*v	*
=48	=48	=48
*^	*	*
8B/	8E\	8g#\L 8gg#	[ >
8A/L	2E\	8cc#\ 8ccc#	.
8G#/	.	8b\ 8bb	.
8Gn/	.	8a#X\ 8aa#X	.
8F#/	.	8an\ 8aan	.
8BB/J	8r	8b\J	]]
*v	*v	*	*
=49	=49	=49
4.E\ 4.B	4.g#\ 4.gg#	.
8E\ 8B	8g#\ 8gg#	.
8E\L 8c#	8a\L 8ee	.
8A\J	8cc#\J	.
=50	=50	=50
8G#\	8b\L	<
*clefG2	*	*
8cn/L 8f#	8a\ 8dd#	.
8c#X/ 8e	8g#\ 8ee	.
8c#/ 8g#	8b\ 8ee#X	.
8f#/J	8a#X\ 8ff#	.
*clefF4	*	*
8F#\ 8A#X	8een\J 8ccc#	[[
!!LO:LB:g=original	!	!
=51	=51	=51
*	*ped	*
2BB\ 2B	8dd#\L 8ff# 8bb	>
.	8cc#\ 8ee 8aa#X	.
.	8b#X\ 8dd# 8aan	.
.	8bn\ 8ddn 8gg#	.
4BB\ 4B	8a\ 8cc# 8aa	.
.	8a\J 8b 8dd#X	]]
=52	=52	=52
*^	*	*
8BB/L	2BB\	8g#/L 8ee	f
8G#/	.	8e/ 8b	.
8Gn/	.	8e/ 8cc#	.
8F#/J	.	8d#/J 8dd#	.
8G/	8E\	8e/ 8ee	.
8r	8ryy	8r	.
*v	*v	*	*
=53:|!|:	=53:|!|:	=53:|!|:
4.BB/	4.aa\	.
8B\ 8d# 8a	8b\ 8ff#	.
8E\L	8gg#\L	.
8G#\J 8B 8e	8g#\J 8ee	.
=54	=54	=54
8F#\L	8gg#/L	.
8B\ 8d#	8b/ 8ff#	.
8F#\	8ee/	.
8c#\	8e/ 8a#X	.
8BB\	8cc#/	.
8D#\J 8F# 8B	8d#/J 8b	.
=55	=55	=55
4.BB\ 4.B	4.aa\ 4.aaa	.
*clefG2	*	*
8d#/ 8a#X	8ccc#\ 8fff##X	.
8g#X/L	8bb#X\L 8ggg#	.
8c#/J 8g#	8bbn\J 8eee#X	.
=56	=56	=56
8f#/L	(8aa#X\L 8fff#X	.
8B/ 8f#	8aan\ 8ddd#	.
8e/	8gg#\ 8eee	.
!	!LO:TX:b:B:t=Ritard&colon;	!
8A#X/J 8e	8ggn\ 8ccc#	.
*clefF4	*	*
8B\L	8dd#\ 8bb	.
8BB\J	8ff#\J)	.
!!LO:LB:g=original	!	!
=57	=57	=57
4.E\ 4.B	4.g#\ 4.gg#	.
8E\ 8B	8g#\ 8ff#	.
8E\L 8c#	8a\L 8ee	.
8A\J	8cc#\J	.
=58	=58	=58
8G#\	(8b\L	<
*clefG2	*	*
8cn/L 8f#	8a\ 8dd#	.
8c#X/ 8e	8g#\ 8ee	.
8c#/ 8g#	8b\ 8ee##X	.
8f#/J	8a#X\ 8ff#	.
*clefF4	*	*
8F#\ 8A#X	8een\J) 8ccc#	[[
=59	=59	=59
2BB\ 2B	(8dd#\L 8ff# 8bb	>
.	8cc#\ 8ee 8aa#X	.
.	8b#X\ 8dd# 8aan	.
.	8bn\ 8dd 8gg#	.
4BB\ 4B	8a\ 8cc# 8aa	.
.	8a\J) 8b 8dd#X	]]
=60	=60	=60
*^	*	*
8BB/L	2BB\	8g#/L 8ee	.
8G#/	.	8e/ 8b	.
8Gn/	.	8e/ 8cc#	.
8F#/J	.	8d#/J 8dd#	.
8E/ 8G#X	4ryy	8e/ 8ee	.
8r	.	8r	.
*v	*v	*	*
=61:|!	=61:|!	=61:|!
*k[f#]	*k[f#]	*
!LO:TX:t=P:problem: zmiana tonacji kolejno: F# Cn Gn Dn 	!LO:TX:t=P:problem: zmiana tonacji: ff# ccn ggn ddn	!
8EE/ 8E	4.b\	.
8G\L 8B 8e	.	.
8G\ 8B 8e	.	.
8G\ 8B 8e	8ee\	.
8G\ 8B 8e	8ff#\L	.
8G\J 8B 8e	8gg\J	.
=62	=62	=62
8EE/ 8E	8.ff#\L	.
8G\L 8B 8e	.	.
.	16ee\Jk	.
8G\ 8B 8e	4.b\	.
8G\ 8B 8e	.	.
8G\ 8B 8e	.	.
8G\J 8B 8e	8bb\	.
=63	=63	=63
8E\L	[4eee\	>
8G\ 8B 8e	.	.
8G\ 8B 8e	16eee\LL]	.
.	16aa#X\	.
8G\J 8B 8e	16ccc\	.
.	16bb\JJ	.
8E\L	16gg\LL	.
.	16ee\	.
8G\J 8c 8e	16cc\	.
.	16a#X\JJ	]]
=64	=64	=64
8E\	(8b\L	.
4G\ 4B 4e	16dd\L	.
.	16cc\JJ	.
.	4.b\)	.
8G\L 8B 8e	.	.
8G\ 8B 8e	.	.
8G\J 8B 8e	8b\	.
=65	=65	=65
8D#X\L	(4.b\	>
8F#\ 8A 8B	.	]]
8F#\ 8A 8B	.	.
8F#\J 8A 8B	8f#/)	.
8E\L	8a/L	.
8G\J 8B	8g/J	.
=66	=66	=66
!	!	!LO:HP:a
8C#X\L	(4.f#/	>
8E\ 8F# 8A#X	.	]]
8E\ 8F# 8A#	.	.
8E\J 8F# 8A#	8e/)	.
8Cn\L	8f#/L	.
8E\J 8F# 8A#	8e/J	.
=67	=67	=67
*	*ped	*
8BB\L	(16d#X\LL	.
.	16b\ 16dd#y	.
8D#X\J 8F# 8B	16f#\	.
.	16dd#\JJ 16ff#	.
8D#\L 8F# 8B	16b\LL	.
.	16ff#\ 16bb	.
8D#\J 8F# 8B	16dd#\	.
.	16bb\JJ 16ddd#y	.
*	*Xped	*
8FF#\L	16ee\LL	.
.	16ff#\ 16ddd#	.
8F#\J 8A#X	16ee\	.
.	16ff#\JJ 16ddd#	.
*clefG2	*	*
=68	=68	=68
*^	*	*
8d#X/L	2B\	16dd#X\LL 16bb	>
.	.	16b\	.
8e/	.	16ee\ 16aa#X	.
.	.	16cc#X\JJ	.
8f#/	.	16dd#\LL 16aan	.
.	.	16cc\	.
8g/	.	16ee\ 16gg	.
.	.	16b\JJ	.
8a/	4ryy	16ee\LL 16ff#	.
.	.	16cc\	.
8f#/J	.	16dd#\ 16bb	.
.	.	16b\JJ)	]]
*v	*v	*	*
*clefF4	*	*
=69	=69	=69
8EE\L 8E	4.b\	.
8G\J 8B 8e	.	.
8G\L 8B 8e	.	.
8G\ 8B 8e	8ee\	.
8G\ 8B 8e	8ff##X\L	.
8G\J 8B 8e	8aa#X\J	.
=70	=70	=70
8E\L	4.bb\	<
8G\J 8B 8e	.	.
8G\L 8B 8e	.	.
8G\ 8B 8e	8eee\	.
*	*8va	*
8G\ 8B 8e	8ggg\L	.
8G\J 8B 8e	8bbb\J	[[
=71	=71	=71
8E\L	(16eeee\LL	ff
.	16dddd\	.
8G#X\J 8d	16bbb\	.
.	16ggg#X\JJ	.
*	*X8va	*
!	!LO:TX:B:a:t=Loco.	!
8G#\L 8d	32eee\LLL	.
.	32ddd\	.
.	32bb\	.
.	32gg#\JJJ	.
8G#\ 8d	32ee\LLL	.
.	32dd\	.
.	32b\	.
.	32g#X\JJJ)	.
8G#\ 8d	8.ffn^\L	.
8G#\J 8d	.	.
.	16ee\Jk	.
!!LO:LB:g=original	!	!
=72	=72	=72
8A\	4dd\	.
4c\ 4e	.	.
.	4.cc\	.
8c\L 8e	.	.
8c\ 8e	.	.
8c\J 8e	8cc\	.
=73	=73	=73
8D\	8cc\L	.
.	16qqb-X/LL	.
.	16qqcc/JJ	.
4Fn\ 4B-X 4d	16b-y\L	.
.	16a\JJ	.
.	16b-\LL	.
.	16cc\	.
8F\L 8B- 8d	16dd\	.
.	16ee\JJ	.
8F\ 8B- 8d	8gg^\L	.
8F\J 8B- 8d	8ffn\J	.
=74	=74	=74
*	*ped	*
8BBB\L 8BB	8.ee\L	.
8F#\J 8B 8d#X	.	.
.	16dd#X\Jk	.
8F#\L 8B 8d#	16cc##X\LL	.
.	16dd#\	.
8F#\ 8B 8d#	16ee\	.
.	16ff#\JJ	.
8F#\ 8B 8d#	16gg\LL	.
.	16aa\	.
8F#\J 8B 8d#	16bb\	.
!	!LO:TX:t=P:problem: podwójny kasownik	!
.	16cccn\JJ	.
*	*Xped	*
=75	=75	=75
*	*ped	*
8E\	16bb\LL	.
.	16ggg\	.
4G\ 4B 4e	16ddd#X\	.
.	16eee\JJ	.
.	16fff#\LL	>
.	16eee\	.
8G\ 8B 8e	16bb\	.
.	16gg\JJ	.
8AA/L	16ff#\LL	.
.	16ee\	.
8E/J 8F#	16cc\	.
.	16a\JJ	]]
=76	=76	=76
*	*Xped	*
8BB/	16g/LL	.
.	16f#/	.
4D#X\ 4A	16b/	f
.	16d#X/JJ	.
.	4A/ 4f#	.
8BB/	.	.
8EE/	8G/ 8e	.
!	!LO:TX:a:t=Fin[e]	!
8r	8r	.
==	==	==
*-	*-	*-
!!!system-decoration: {(s1,s2)}
!!!RDF**kern: > = above
!!!RDF**kern: < = below
!!!ENC: Andrzej Gręziak
!!!END: 2022-08-04
!!!ENC: Jan Barakat
!!!END: 2022-09-07
!!!YEC: Copyright 2022 Narodowy Instytut Fryderyka Chopina (https://polishscores.org)
!!!YEM: License CC-BY-4.0 (https://creativecommons.org/licenses/by/4.0)
